src/svg/uf114-folder-o.svg

<!-- Generated by IcoMoon.io -->
<svg version="1.1" xmlns="http://www.w3.org/2000/svg" width="30" height="32" viewBox="0 0 30 32">
<path d="M27.429 23.429v-12.571c0-0.946-0.768-1.714-1.714-1.714h-12.571c-0.946 0-1.714-0.768-1.714-1.714v-1.143c0-0.946-0.768-1.714-1.714-1.714h-5.714c-0.946 0-1.714 0.768-1.714 1.714v17.143c0 0.946 0.768 1.714 1.714 1.714h21.714c0.946 0 1.714-0.768 1.714-1.714zM29.714 10.857v12.571c0 2.196-1.804 4-4 4h-21.714c-2.196 0-4-1.804-4-4v-17.143c0-2.196 1.804-4 4-4h5.714c2.196 0 4 1.804 4 4v0.571h12c2.196 0 4 1.804 4 4z"></path>
</svg>

<svg xmlns="http://www.w3.org/2000/svg" width="30" height="32"><path d="M27.429 23.429V10.858c0-.946-.768-1.714-1.714-1.714H13.144A1.715 1.715 0 0 1 11.43 7.43V6.287c0-.946-.768-1.714-1.714-1.714H4.002c-.946 0-1.714.768-1.714 1.714V23.43c0 .946.768 1.714 1.714 1.714h21.714c.946 0 1.714-.768 1.714-1.714zm2.285-12.572v12.571c0 2.196-1.804 4-4 4H4c-2.196 0-4-1.804-4-4V6.285c0-2.196 1.804-4 4-4h5.714c2.196 0 4 1.804 4 4v.571h12c2.196 0 4 1.804 4 4z"/></svg>
